X: 7016
T: Chief O'Neill's Favourite
R: hornpipe
M: 4/4
K: Dmajor
|:de|f2fg af (3gfe|fdec dcAG|F2FD FGAB|=cAd^c A2 de|
fefg af (3gfe|fdec dcAG|FADF GBAG|FA (3DDD D2:|
|:DE|=F2FE FGAB|=cAdA =cBAG|Adad fded|=cAd^c A2de|
fefg af (3gfe|fdec dcAG|FADF GBAG|FA (3DDD D2:|

